shader_type canvas_item;

uniform float radius : hint_range(0.0, 1.5) = 1.2;
uniform vec2 center = vec2(0.5, 0.5);
uniform float softness : hint_range(0.0, 0.2) = 0.02;

void fragment()
{
    vec2 uv = SCREEN_UV;
    float dist = distance(uv, center);

    float alpha = smoothstep(radius, radius - softness, dist);

    COLOR = vec4(0.0, 0.0, 0.0, alpha);
}